images/dina.svg

<svg xmlns="http://www.w3.org/2000/svg" width="73" height="40" viewBox="0 0 73 40">
  <path fill="#346275" fill-rule="evenodd" d="M4.43622921,25.8410351 C6.65434381,30.6839187 11.5711645,34.0480591 17.2273567,34.0480591 L17.2273567,34.0480591 L22.0371396,34.0494783 C19.7878356,31.7750904 18.0785311,28.9677955 17.116451,25.8410351 L55.3419593,25.8410351 C54.3798792,28.9677955 52.6705748,31.7750904 50.4254152,34.0494783 L55.0092421,34.0480591 C60.702403,34.0480591 65.5822551,30.6839187 67.8003697,25.8410351 L67.8003697,25.8410351 L69.5748614,25.8410351 C67.245841,31.5711645 61.5896488,35.6377079 55.0092421,35.6377079 L55.0092421,35.6377079 L48.6629568,35.6371706 C45.2528351,38.3646059 40.9412149,40 36.2661738,40 C31.5524959,40 27.2224291,38.3646059 23.8035002,35.6371706 L17.2273567,35.6377079 C10.6469501,35.6377079 5.02772643,31.5711645 2.6987061,25.8410351 L2.6987061,25.8410351 Z M30.4990758,17.7449168 C31.1645102,17.7449168 31.7560074,17.7818854 32.310536,17.8927911 C32.8650647,17.9667283 33.3086876,18.077634 33.6044362,18.2255083 C33.974122,18.3733826 34.2698706,18.5951941 34.4177449,18.780037 C34.5656192,19.0018484 34.6395564,19.3345656 34.6395564,19.74122 L34.6395564,22.6987061 C34.6395564,22.8096118 34.676525,22.883549 34.7134935,22.9574861 C34.7874307,23.0683919 34.8613678,23.1053604 34.9722736,23.1792976 L34.9722736,23.3271719 L31.792976,23.3271719 L31.6081331,22.8096118 C31.2014787,23.0314233 30.7578558,23.2162662 30.3142329,23.3271719 C29.8336414,23.4750462 29.3160813,23.5120148 28.7245841,23.5120148 C27.8373383,23.5120148 27.1349353,23.3641405 26.6173752,23.0683919 C26.1367837,22.7726433 25.9149723,22.3290203 25.9149723,21.8114603 C25.9149723,21.2569316 26.1367837,20.8502773 26.6173752,20.5914972 C27.0979667,20.3696858 28.0221811,20.1848429 29.3530499,20.0369686 C29.5378928,20.0369686 29.7597043,20 30.0554529,20 C31.0536044,19.9630314 31.5341959,19.7781885 31.5341959,19.5194085 C31.5341959,19.3345656 31.4602588,19.2236599 31.2754159,19.1497227 C31.090573,19.0757856 30.7948244,19.0757856 30.3881701,19.0757856 C30.0924214,19.0757856 29.8336414,19.1127542 29.6487985,19.1866913 C29.4639556,19.2606285 29.3900185,19.4085028 29.3530499,19.5933457 L26.2476895,19.5933457 C26.284658,19.0018484 26.6543438,18.5212569 27.3567468,18.2255083 C28.0591497,17.8927911 29.1312384,17.7449168 30.4990758,17.7449168 Z M72.754159,16.0443623 L72.754159,23.3271719 L69.9445471,23.3271719 L69.9445471,22.6617375 C69.6118299,22.9574861 69.2051756,23.1792976 68.7985213,23.2902033 C68.3548983,23.4380776 67.8743068,23.5120148 67.3197782,23.5120148 C66.3216266,23.5120148 65.5083179,23.2532348 64.8798521,22.7356747 C64.2513863,22.2181146 63.9186691,21.5157116 63.9186691,20.6284658 C63.9186691,19.8151571 64.2513863,19.1127542 64.8798521,18.5951941 C65.5083179,18.0406654 66.3216266,17.7818854 67.3197782,17.7818854 C67.8003697,17.7818854 68.207024,17.8558226 68.6136784,17.9667283 C68.9833641,18.077634 69.3530499,18.2624769 69.6487985,18.5212569 L69.6487985,16.0443623 L72.754159,16.0443623 Z M52.0147874,17.7449168 C52.6802218,17.7449168 53.271719,17.7818854 53.8262477,17.8927911 C54.3807763,17.9667283 54.8243993,18.077634 55.1201479,18.2255083 C55.4898336,18.3733826 55.7486137,18.5951941 55.896488,18.780037 C56.0443623,19.0018484 56.1182994,19.3345656 56.1182994,19.74122 L56.1182994,22.6987061 C56.1182994,22.8096118 56.155268,22.883549 56.2292052,22.9574861 C56.2661738,23.0683919 56.3770795,23.1053604 56.4879852,23.1792976 L56.4879852,23.3271719 L53.3086876,23.3271719 L53.1238447,22.8096118 C52.7171904,23.0314233 52.2735675,23.2162662 51.792976,23.3271719 C51.3123845,23.4750462 50.7948244,23.5120148 50.2033272,23.5120148 C49.3160813,23.5120148 48.6136784,23.3641405 48.1330869,23.0683919 C47.6524954,22.7726433 47.3937153,22.3290203 47.3937153,21.8114603 C47.3937153,21.2569316 47.6524954,20.8502773 48.1330869,20.5914972 C48.6136784,20.3696858 49.5378928,20.1848429 50.8687616,20.0369686 C51.0166359,20.0369686 51.2754159,20 51.5341959,20 C52.5323475,19.9630314 53.0499076,19.7781885 53.0499076,19.5194085 C53.0499076,19.3345656 52.9390018,19.2236599 52.7911275,19.1497227 C52.6062847,19.0757856 52.310536,19.0757856 51.9038817,19.0757856 C51.5711645,19.0757856 51.3123845,19.1127542 51.1645102,19.1866913 C50.9796673,19.2606285 50.8687616,19.4085028 50.831793,19.5933457 L47.7634011,19.5933457 C47.7634011,19.0018484 48.1330869,18.5212569 48.8724584,18.2255083 C49.5748614,17.8927911 50.6099815,17.7449168 52.0147874,17.7449168 Z M41.3678373,15.8225508 C42.9205176,15.8225508 44.1404806,16.0813309 45.0277264,16.5988909 C45.9149723,17.116451 46.4325323,17.8558226 46.5434381,18.8170055 L43.2162662,18.8170055 C43.1792976,18.4103512 42.9944547,18.1515712 42.6987061,17.9667283 C42.4029575,17.7818854 41.9593346,17.6709797 41.4048059,17.6709797 C40.702403,17.6709797 40.2218115,17.818854 39.8890943,18.1885397 C39.5194085,18.5212569 39.3715342,19.0018484 39.3715342,19.7042514 C39.3715342,20.3327172 39.5563771,20.8502773 39.8890943,21.1829945 C40.25878,21.5157116 40.8133087,21.7005545 41.4787431,21.7005545 C42.0332717,21.7005545 42.4399261,21.5896488 42.7726433,21.3678373 C43.0683919,21.1829945 43.2532348,20.8502773 43.3271719,20.4805915 L46.5804067,20.4805915 C46.5064695,21.4417745 45.9889094,22.181146 45.1016636,22.7356747 C44.2144177,23.2532348 42.9944547,23.5120148 41.4417745,23.5120148 C39.7042514,23.5120148 38.336414,23.1792976 37.3752311,22.4768946 C36.3770795,21.8114603 35.9334566,20.8502773 35.9334566,19.7042514 C35.9334566,18.5212569 36.3770795,17.5600739 37.3382625,16.857671 C38.336414,16.1922366 39.6672828,15.8225508 41.3678373,15.8225508 Z M14.6025878,17.9297597 L14.6025878,23.3271719 L11.4232902,23.3271719 L11.4232902,17.9297597 L14.6025878,17.9297597 Z M6.58040665,16.1182994 C7.09796673,16.1922366 7.54158965,16.3031423 7.91127542,16.4510166 C8.65064695,16.7467652 9.24214418,17.1534196 9.61182994,17.7079482 C9.98151571,18.2624769 10.1663586,18.9279113 10.1663586,19.7042514 C10.1663586,20.4805915 9.94454713,21.1829945 9.46395564,21.7744917 C9.02033272,22.3290203 8.31792976,22.7356747 7.39371534,23.0314233 C7.06099815,23.142329 6.61737523,23.2162662 6.09981516,23.2532348 C5.54528651,23.2902033 4.73197782,23.3271719 3.54898336,23.3271719 L2.13162821e-14,23.3271719 L2.13162821e-14,16.0443623 L4.78580407,16.0449538 C5.55120148,16.0473198 6.13678373,16.0591497 6.58040665,16.1182994 Z M21.8114603,17.818854 C22.2920518,17.818854 22.7356747,17.8558226 23.1053604,17.9667283 C23.5120148,18.077634 23.8077634,18.2255083 24.0665434,18.4473198 C24.3253235,18.6691312 24.4731978,18.8909427 24.5841035,19.1866913 C24.6950092,19.4454713 24.7319778,19.9260628 24.7319778,20.5175601 L24.7319778,23.3271719 L21.5896488,23.3271719 L21.5896488,20.5175601 C21.5896488,20.1109057 21.5157116,19.8521257 21.3308688,19.7042514 C21.1829945,19.5563771 20.8872458,19.4824399 20.5175601,19.4824399 C20.1109057,19.4824399 19.8151571,19.5563771 19.5933457,19.74122 C19.4085028,19.9260628 19.3345656,20.1478743 19.3345656,20.5175601 L19.3345656,23.3271719 L16.155268,23.3271719 L16.155268,17.9297597 L19.038817,17.9297597 L19.038817,18.7430684 C19.4085028,18.4103512 19.8151571,18.1885397 20.25878,18.0406654 C20.7393715,17.8927911 21.2569316,17.818854 21.8114603,17.818854 Z M63.4011091,17.818854 L63.4011091,19.9630314 C63.2902033,19.9260628 63.1792976,19.9260628 63.0683919,19.9260628 L62.7726433,19.9260628 L62.7726433,19.9260628 C62.1072089,19.9260628 61.663586,20 61.3678373,20.1848429 C61.0351201,20.3696858 60.8872458,20.6654344 60.8872458,21.1090573 L60.8872458,23.3271719 L57.7449168,23.3271719 L57.7449168,17.9297597 L60.6654344,17.9297597 L60.6654344,18.9279113 C60.8502773,18.5582255 61.1460259,18.2624769 61.5526802,18.077634 C61.9593346,17.8927911 62.4768946,17.818854 63.1053604,17.818854 L63.4011091,17.818854 Z M31.4972274,20.9242144 C31.2014787,20.9981516 30.7948244,21.0720887 30.3142329,21.1460259 C29.5009242,21.2939002 29.1312384,21.4787431 29.1312384,21.7375231 C29.1312384,21.8853974 29.2051756,21.9963031 29.3530499,22.1072089 C29.5009242,22.181146 29.7227357,22.2181146 30.0184843,22.2181146 C30.5360444,22.2181146 30.9426987,22.1441774 31.1645102,21.9593346 C31.4232902,21.8114603 31.5341959,21.5526802 31.5341959,21.1829945 L31.5341959,20.9981516 L31.5341959,20.9981516 C31.5341959,20.961183 31.5341959,20.9242144 31.4972274,20.9242144 Z M53.012939,20.9242144 C52.7171904,20.9981516 52.310536,21.0720887 51.792976,21.1460259 C51.0166359,21.2939002 50.6099815,21.4787431 50.6099815,21.7375231 C50.6099815,21.8853974 50.6839187,21.9963031 50.8687616,22.1072089 C51.0166359,22.181146 51.2384473,22.2181146 51.5341959,22.2181146 C52.051756,22.2181146 52.4214418,22.1441774 52.6802218,21.9593346 C52.9020333,21.8114603 53.0499076,21.5526802 53.0499076,21.1829945 C53.0499076,21.1090573 53.0499076,21.0351201 53.012939,20.9981516 L53.012939,20.9242144 L53.012939,20.9242144 Z M68.3918669,19.4454713 C67.948244,19.4454713 67.6155268,19.5563771 67.4306839,19.7781885 C67.2088725,19.9630314 67.0979667,20.25878 67.0979667,20.6654344 C67.0979667,21.0720887 67.2088725,21.3678373 67.4306839,21.5896488 C67.6524954,21.8114603 67.9852126,21.922366 68.3918669,21.922366 C68.7985213,21.922366 69.0942699,21.8114603 69.3530499,21.5896488 C69.5748614,21.3678373 69.6857671,21.0720887 69.6857671,20.6654344 C69.6857671,20.25878 69.5748614,19.9630314 69.3530499,19.7781885 C69.168207,19.5563771 68.8354898,19.4454713 68.3918669,19.4454713 Z M4.43622921,17.8927911 L3.47504621,17.8927911 L3.47504621,21.4787431 L4.39926063,21.4787431 C5.24953789,21.4787431 5.84103512,21.3308688 6.17375231,21.0720887 C6.5064695,20.8133087 6.69131238,20.3327172 6.69131238,19.7042514 C6.69131238,19.038817 6.5064695,18.5582255 6.17375231,18.2994455 C5.84103512,18.0036969 5.24953789,17.8927911 4.43622921,17.8927911 Z M14.6025878,15.8595194 L14.6025878,17.4121996 L11.4232902,17.4121996 L11.4232902,15.8595194 L14.6025878,15.8595194 Z M36.2661738,-1.0658141e-14 C40.9412149,-1.0658141e-14 45.2528351,1.63539408 48.6629568,4.36282937 L55.0092421,4.36229205 C61.5896488,4.36229205 67.245841,8.42883549 69.5748614,14.1589649 L69.5748614,14.1589649 L67.8003697,14.1589649 C65.5822551,9.31608133 60.702403,5.95194085 55.0092421,5.95194085 L55.0092421,5.95194085 L50.4254152,5.95052167 C52.6705748,8.22490965 54.3798792,11.0322045 55.3419593,14.1589649 L17.116451,14.1589649 C18.0785311,11.0322045 19.7878356,8.22490965 22.0371396,5.95052167 L17.2273567,5.95194085 C11.5711645,5.95194085 6.65434381,9.31608133 4.43622921,14.1589649 L4.43622921,14.1589649 L2.6987061,14.1589649 C5.02772643,8.42883549 10.6469501,4.36229205 17.2273567,4.36229205 L17.2273567,4.36229205 L23.8035002,4.36282937 C27.2224291,1.63539408 31.5524959,-1.0658141e-14 36.2661738,-1.0658141e-14 Z"/>
</svg>

<?xml version="1.0" encoding="utf-8"?>
<!-- Generator: Adobe Illustrator 24.1.2, SVG Export Plug-In . SVG Version: 6.00 Build 0)  -->
<svg version="1.1" id="Layer_1" xmlns="http://www.w3.org/2000/svg" xmlns:xlink="http://www.w3.org/1999/xlink" x="0px" y="0px"
	 viewBox="0 0 73 40" style="enable-background:new 0 0 73 40;" xml:space="preserve">
<style type="text/css">
	.st0{fill-rule:evenodd;clip-rule:evenodd;fill:#FCF5A3;}
</style>
<path class="st0" d="M4.4,25.8c2.2,4.8,7.1,8.2,12.8,8.2l0,0l4.8,0c-2.2-2.3-4-5.1-4.9-8.2h38.2c-1,3.1-2.7,5.9-4.9,8.2l4.6,0
	c5.7,0,10.6-3.4,12.8-8.2l0,0h1.8c-2.3,5.7-8,9.8-14.6,9.8l0,0l-6.3,0c-3.4,2.7-7.7,4.4-12.4,4.4c-4.7,0-9-1.6-12.5-4.4l-6.6,0
	c-6.6,0-12.2-4.1-14.5-9.8l0,0H4.4z M30.5,17.7c0.7,0,1.3,0,1.8,0.1c0.6,0.1,1,0.2,1.3,0.3c0.4,0.1,0.7,0.4,0.8,0.6
	c0.1,0.2,0.2,0.6,0.2,1v3c0,0.1,0,0.2,0.1,0.3c0.1,0.1,0.1,0.1,0.3,0.2v0.1h-3.2l-0.2-0.5c-0.4,0.2-0.9,0.4-1.3,0.5
	c-0.5,0.1-1,0.2-1.6,0.2c-0.9,0-1.6-0.1-2.1-0.4c-0.5-0.3-0.7-0.7-0.7-1.3c0-0.6,0.2-1,0.7-1.2c0.5-0.2,1.4-0.4,2.7-0.6
	c0.2,0,0.4,0,0.7,0c1,0,1.5-0.2,1.5-0.5c0-0.2-0.1-0.3-0.3-0.4c-0.2-0.1-0.5-0.1-0.9-0.1c-0.3,0-0.6,0-0.7,0.1s-0.3,0.2-0.3,0.4
	h-3.1c0-0.6,0.4-1.1,1.1-1.4C28.1,17.9,29.1,17.7,30.5,17.7z M72.8,16v7.3h-2.8v-0.7c-0.3,0.3-0.7,0.5-1.1,0.6
	c-0.4,0.1-0.9,0.2-1.5,0.2c-1,0-1.8-0.3-2.4-0.8c-0.6-0.5-1-1.2-1-2.1c0-0.8,0.3-1.5,1-2c0.6-0.6,1.4-0.8,2.4-0.8
	c0.5,0,0.9,0.1,1.3,0.2c0.4,0.1,0.7,0.3,1,0.6V16H72.8z M52,17.7c0.7,0,1.3,0,1.8,0.1c0.6,0.1,1,0.2,1.3,0.3
	c0.4,0.1,0.6,0.4,0.8,0.6c0.1,0.2,0.2,0.6,0.2,1v3c0,0.1,0,0.2,0.1,0.3c0,0.1,0.1,0.1,0.3,0.2v0.1h-3.2l-0.2-0.5
	c-0.4,0.2-0.9,0.4-1.3,0.5c-0.5,0.1-1,0.2-1.6,0.2c-0.9,0-1.6-0.1-2.1-0.4s-0.7-0.7-0.7-1.3c0-0.6,0.3-1,0.7-1.2
	c0.5-0.2,1.4-0.4,2.7-0.6c0.1,0,0.4,0,0.7,0c1,0,1.5-0.2,1.5-0.5c0-0.2-0.1-0.3-0.3-0.4c-0.2-0.1-0.5-0.1-0.9-0.1
	c-0.3,0-0.6,0-0.7,0.1c-0.2,0.1-0.3,0.2-0.3,0.4h-3.1c0-0.6,0.4-1.1,1.1-1.4C49.6,17.9,50.6,17.7,52,17.7z M41.4,15.8
	c1.6,0,2.8,0.3,3.7,0.8c0.9,0.5,1.4,1.3,1.5,2.2h-3.3c0-0.4-0.2-0.7-0.5-0.9c-0.3-0.2-0.7-0.3-1.3-0.3c-0.7,0-1.2,0.1-1.5,0.5
	c-0.4,0.3-0.5,0.8-0.5,1.5c0,0.6,0.2,1.1,0.5,1.5c0.4,0.3,0.9,0.5,1.6,0.5c0.6,0,1-0.1,1.3-0.3c0.3-0.2,0.5-0.5,0.6-0.9h3.3
	c-0.1,1-0.6,1.7-1.5,2.3c-0.9,0.5-2.1,0.8-3.7,0.8c-1.7,0-3.1-0.3-4.1-1c-1-0.7-1.4-1.6-1.4-2.8c0-1.2,0.4-2.1,1.4-2.8
	C38.3,16.2,39.7,15.8,41.4,15.8z M14.6,17.9v5.4h-3.2v-5.4H14.6z M6.6,16.1c0.5,0.1,1,0.2,1.3,0.3c0.7,0.3,1.3,0.7,1.7,1.3
	c0.4,0.6,0.6,1.2,0.6,2c0,0.8-0.2,1.5-0.7,2.1c-0.4,0.6-1.1,1-2.1,1.3c-0.3,0.1-0.8,0.2-1.3,0.2c-0.6,0-1.4,0.1-2.6,0.1H0V16l4.8,0
	C5.6,16,6.1,16.1,6.6,16.1z M21.8,17.8c0.5,0,0.9,0,1.3,0.1c0.4,0.1,0.7,0.3,1,0.5s0.4,0.4,0.5,0.7c0.1,0.3,0.1,0.7,0.1,1.3v2.8
	h-3.1v-2.8c0-0.4-0.1-0.7-0.3-0.8c-0.1-0.1-0.4-0.2-0.8-0.2c-0.4,0-0.7,0.1-0.9,0.3c-0.2,0.2-0.3,0.4-0.3,0.8v2.8h-3.2v-5.4H19v0.8
	c0.4-0.3,0.8-0.6,1.2-0.7C20.7,17.9,21.3,17.8,21.8,17.8z M63.4,17.8V20c-0.1,0-0.2,0-0.3,0h-0.3l0,0c-0.7,0-1.1,0.1-1.4,0.3
	c-0.3,0.2-0.5,0.5-0.5,0.9v2.2h-3.1v-5.4h2.9v1c0.2-0.4,0.5-0.7,0.9-0.9c0.4-0.2,0.9-0.3,1.6-0.3H63.4z M31.5,20.9
	c-0.3,0.1-0.7,0.1-1.2,0.2c-0.8,0.1-1.2,0.3-1.2,0.6c0,0.1,0.1,0.3,0.2,0.4c0.1,0.1,0.4,0.1,0.7,0.1c0.5,0,0.9-0.1,1.1-0.3
	c0.3-0.1,0.4-0.4,0.4-0.8L31.5,20.9L31.5,20.9C31.5,21,31.5,20.9,31.5,20.9z M53,20.9c-0.3,0.1-0.7,0.1-1.2,0.2
	c-0.8,0.1-1.2,0.3-1.2,0.6c0,0.1,0.1,0.3,0.3,0.4c0.1,0.1,0.4,0.1,0.7,0.1c0.5,0,0.9-0.1,1.1-0.3c0.2-0.1,0.4-0.4,0.4-0.8
	C53,21.1,53,21,53,20.9L53,20.9L53,20.9z M68.4,19.4c-0.4,0-0.8,0.1-1,0.3c-0.2,0.2-0.3,0.5-0.3,0.9s0.1,0.7,0.3,0.9
	c0.2,0.2,0.6,0.3,1,0.3s0.7-0.1,1-0.3c0.2-0.2,0.3-0.5,0.3-0.9s-0.1-0.7-0.3-0.9C69.2,19.6,68.8,19.4,68.4,19.4z M4.4,17.9h-1v3.6
	h0.9c0.9,0,1.4-0.1,1.8-0.4c0.3-0.3,0.5-0.7,0.5-1.4c0-0.7-0.2-1.1-0.5-1.4C5.8,18,5.2,17.9,4.4,17.9z M14.6,15.9v1.6h-3.2v-1.6
	H14.6z M36.3,0c4.7,0,9,1.6,12.4,4.4l6.3,0c6.6,0,12.2,4.1,14.6,9.8l0,0h-1.8C65.6,9.3,60.7,6,55,6l0,0l-4.6,0
	c2.2,2.3,4,5.1,4.9,8.2H17.1c1-3.1,2.7-5.9,4.9-8.2l-4.8,0C11.6,6,6.7,9.3,4.4,14.2l0,0H2.7C5,8.4,10.6,4.4,17.2,4.4l0,0l6.6,0
	C27.2,1.6,31.6,0,36.3,0z"/>
</svg>
